resources/svg/sun.svg

<svg width="15" height="15" viewBox="0 0 15 15" fill="none" xmlns="http://www.w3.org/2000/svg">
<path d="M8 1.99933V0H7V1.99933H8Z" fill="black"/>
<path d="M3.20711 2.49842L1.49976 0.792222L0.792893 1.49957L2.50024 3.20576L3.20711 2.49842Z" fill="black"/>
<path d="M12.4998 3.20576L14.2071 1.49957L13.5002 0.792222L11.7929 2.49842L12.4998 3.20576Z" fill="black"/>
<path d="M7.5 3.99738C5.56716 3.99738 4 5.56305 4 7.49542C4 9.42779 5.56716 10.9935 7.5 10.9935C9.43284 10.9935 11 9.42779 11 7.49542C11 5.56305 9.43284 3.99738 7.5 3.99738Z" fill="black"/>
<path d="M2 6.99542H0V7.99542H2V6.99542Z" fill="black"/>
<path d="M15 6.99542H13V7.99542H15V6.99542Z" fill="black"/>
<path d="M1.49978 14.1986L3.20711 12.4923L2.50022 11.785L0.792893 13.4913L1.49978 14.1986Z" fill="black"/>
<path d="M14.2071 13.4913L12.4998 11.785L11.7929 12.4923L13.5002 14.1986L14.2071 13.4913Z" fill="black"/>
<path d="M8 14.9908V12.9915H7V14.9908H8Z" fill="black"/>
</svg>

<svg viewBox="0 0 15 15" fill="none" xmlns="http://www.w3.org/2000/svg" fill="currentColor"><path d="M8 2V0H7v2h1zm-4.793.498L1.5.792.793 1.5 2.5 3.206l.707-.708zm9.293.708L14.207 1.5 13.5.792l-1.707 1.706.707.708zm-5 .791a3.499 3.499 0 100 6.996 3.499 3.499 0 100-6.996zM2 6.995H0v1h2v-1zm13 0h-2v1h2v-1zM1.5 14.199l1.707-1.707-.707-.707-1.707 1.706.707.708zm12.707-.708L12.5 11.785l-.707.707L13.5 14.2l.707-.708zM8 14.99v-1.998H7v1.999h1z" fill="currentColor"/></svg>
